Newaita-dark/.places-retrowave/64/bookmarks.svg

<?xml version="1.0" encoding="UTF-8"?>
<svg xmlns="http://www.w3.org/2000/svg" xmlns:xlink="http://www.w3.org/1999/xlink" width="64pt" height="64pt" viewBox="0 0 64 64" version="1.1">
<defs>
<radialGradient id="radial0" gradientUnits="userSpaceOnUse" cx="450.908936" cy="189.579361" fx="450.908936" fy="189.579361" r="21.166656" gradientTransform="matrix(0.000000348341,-0.156265,-0.281277,-0.000000203077,69.862181,127.190659)">
<stop offset="0" style="stop-color:rgb(0%,0%,0%);stop-opacity:0.313725;"/>
<stop offset="0.222222" style="stop-color:rgb(0%,0%,0%);stop-opacity:0.27451;"/>
<stop offset="1" style="stop-color:rgb(0%,0%,0%);stop-opacity:0;"/>
</radialGradient>
<radialGradient id="radial1" gradientUnits="userSpaceOnUse" cx="450.908936" cy="189.579361" fx="450.908936" fy="189.579361" r="21.166656" gradientTransform="matrix(-0.000000348341,0.156265,0.281277,0.000000203077,-36.124582,-15.054964)">
<stop offset="0" style="stop-color:rgb(0%,0%,0%);stop-opacity:0.313725;"/>
<stop offset="0.222222" style="stop-color:rgb(0%,0%,0%);stop-opacity:0.27451;"/>
<stop offset="1" style="stop-color:rgb(0%,0%,0%);stop-opacity:0;"/>
</radialGradient>
<radialGradient id="radial2" gradientUnits="userSpaceOnUse" cx="450.908936" cy="189.579361" fx="450.908936" fy="189.579361" r="21.166656" gradientTransform="matrix(-0.000000348341,-0.156265,0.281277,-0.000000203077,-36.124582,127.190659)">
<stop offset="0" style="stop-color:rgb(0%,0%,0%);stop-opacity:0.313725;"/>
<stop offset="0.222222" style="stop-color:rgb(0%,0%,0%);stop-opacity:0.27451;"/>
<stop offset="1" style="stop-color:rgb(0%,0%,0%);stop-opacity:0;"/>
</radialGradient>
<radialGradient id="radial3" gradientUnits="userSpaceOnUse" cx="450.908936" cy="189.579361" fx="450.908936" fy="189.579361" r="21.166656" gradientTransform="matrix(0.000000348341,0.156265,-0.281277,0.000000203077,69.862177,-15.054965)">
<stop offset="0" style="stop-color:rgb(0%,0%,0%);stop-opacity:0.313725;"/>
<stop offset="0.222222" style="stop-color:rgb(0%,0%,0%);stop-opacity:0.27451;"/>
<stop offset="1" style="stop-color:rgb(0%,0%,0%);stop-opacity:0;"/>
</radialGradient>
<linearGradient id="linear0" gradientUnits="userSpaceOnUse" x1="255.323059" y1="233.5" x2="255.323044" y2="254.666656" gradientTransform="matrix(0.0267201,0,0,0.125012,14.346427,26.877567)">
<stop offset="0" style="stop-color:rgb(0%,0%,0%);stop-opacity:0.27451;"/>
<stop offset="1" style="stop-color:rgb(0%,0%,0%);stop-opacity:0;"/>
</linearGradient>
<radialGradient id="radial4" gradientUnits="userSpaceOnUse" cx="450.908936" cy="189.579361" fx="450.908936" fy="189.579361" r="21.166656" gradientTransform="matrix(0.000000348341,-0.156265,-0.281277,-0.000000203077,100.292173,127.190659)">
<stop offset="0" style="stop-color:rgb(0%,0%,0%);stop-opacity:0.313725;"/>
<stop offset="0.222222" style="stop-color:rgb(0%,0%,0%);stop-opacity:0.27451;"/>
<stop offset="1" style="stop-color:rgb(0%,0%,0%);stop-opacity:0;"/>
</radialGradient>
<radialGradient id="radial5" gradientUnits="userSpaceOnUse" cx="450.908936" cy="189.579361" fx="450.908936" fy="189.579361" r="21.166656" gradientTransform="matrix(-0.000000348341,0.156265,0.281277,0.000000203077,-5.69459,-15.054964)">
<stop offset="0" style="stop-color:rgb(0%,0%,0%);stop-opacity:0.313725;"/>
<stop offset="0.222222" style="stop-color:rgb(0%,0%,0%);stop-opacity:0.27451;"/>
<stop offset="1" style="stop-color:rgb(0%,0%,0%);stop-opacity:0;"/>
</radialGradient>
<radialGradient id="radial6" gradientUnits="userSpaceOnUse" cx="450.908936" cy="189.579361" fx="450.908936" fy="189.579361" r="21.166656" gradientTransform="matrix(-0.000000348341,-0.156265,0.281277,-0.000000203077,-5.69459,127.190659)">
<stop offset="0" style="stop-color:rgb(0%,0%,0%);stop-opacity:0.313725;"/>
<stop offset="0.222222" style="stop-color:rgb(0%,0%,0%);stop-opacity:0.27451;"/>
<stop offset="1" style="stop-color:rgb(0%,0%,0%);stop-opacity:0;"/>
</radialGradient>
<radialGradient id="radial7" gradientUnits="userSpaceOnUse" cx="450.908936" cy="189.579361" fx="450.908936" fy="189.579361" r="21.166656" gradientTransform="matrix(0.000000348341,0.156265,-0.281277,0.000000203077,100.292169,-15.054965)">
<stop offset="0" style="stop-color:rgb(0%,0%,0%);stop-opacity:0.313725;"/>
<stop offset="0.222222" style="stop-color:rgb(0%,0%,0%);stop-opacity:0.27451;"/>
<stop offset="1" style="stop-color:rgb(0%,0%,0%);stop-opacity:0;"/>
</radialGradient>
<linearGradient id="linear1" gradientUnits="userSpaceOnUse" x1="255.323059" y1="233.5" x2="255.323044" y2="254.666656" gradientTransform="matrix(0.0267201,0,0,0.125012,44.77642,26.877567)">
<stop offset="0" style="stop-color:rgb(0%,0%,0%);stop-opacity:0.27451;"/>
<stop offset="1" style="stop-color:rgb(0%,0%,0%);stop-opacity:0;"/>
</linearGradient>
<linearGradient id="linear2" gradientUnits="userSpaceOnUse" x1="254" y1="233.5" x2="254" y2="-168.666656" gradientTransform="matrix(0.125012,0,0,0.125012,0,26.877566)">
<stop offset="0" style="stop-color:rgb(100%,79.215686%,15.686275%);stop-opacity:1;"/>
<stop offset="1" style="stop-color:rgb(100%,83.529412%,30.980392%);stop-opacity:1;"/>
</linearGradient>
</defs>
<g id="surface1">
<path style=" stroke:none;fill-rule:nonzero;fill:url(#radial0);" d="M 17.199219 56.066406 L 22.492188 56.066406 L 22.492188 53.421875 L 17.199219 53.421875 Z M 17.199219 56.066406 "/>
<path style=" stroke:none;fill-rule:nonzero;fill:url(#radial1);" d="M 16.539062 56.066406 L 11.246094 56.066406 L 11.246094 58.714844 L 16.539062 58.714844 Z M 16.539062 56.066406 "/>
<path style=" stroke:none;fill-rule:nonzero;fill:url(#radial2);" d="M 16.539062 56.066406 L 11.246094 56.066406 L 11.246094 53.421875 L 16.539062 53.421875 Z M 16.539062 56.066406 "/>
<path style=" stroke:none;fill-rule:nonzero;fill:url(#radial3);" d="M 17.199219 56.066406 L 22.492188 56.066406 L 22.492188 58.714844 L 17.199219 58.714844 Z M 17.199219 56.066406 "/>
<path style=" stroke:none;fill-rule:nonzero;fill:url(#linear0);" d="M 16.539062 55.40625 L 17.199219 55.40625 L 17.199219 58.714844 L 16.539062 58.714844 Z M 16.539062 55.40625 "/>
<path style=" stroke:none;fill-rule:nonzero;fill:url(#radial4);" d="M 47.628906 56.066406 L 52.921875 56.066406 L 52.921875 53.421875 L 47.628906 53.421875 Z M 47.628906 56.066406 "/>
<path style=" stroke:none;fill-rule:nonzero;fill:url(#radial5);" d="M 46.96875 56.066406 L 41.675781 56.066406 L 41.675781 58.714844 L 46.96875 58.714844 Z M 46.96875 56.066406 "/>
<path style=" stroke:none;fill-rule:nonzero;fill:url(#radial6);" d="M 46.96875 56.066406 L 41.675781 56.066406 L 41.675781 53.421875 L 46.96875 53.421875 Z M 46.96875 56.066406 "/>
<path style=" stroke:none;fill-rule:nonzero;fill:url(#radial7);" d="M 47.628906 56.066406 L 52.921875 56.066406 L 52.921875 58.714844 L 47.628906 58.714844 Z M 47.628906 56.066406 "/>
<path style=" stroke:none;fill-rule:nonzero;fill:url(#linear1);" d="M 46.96875 55.40625 L 47.628906 55.40625 L 47.628906 58.714844 L 46.96875 58.714844 Z M 46.96875 55.40625 "/>
<path style=" stroke:none;fill-rule:nonzero;fill:url(#linear2);" d="M 31.753906 5.792969 C 35.320312 5.792969 36.644531 20.777344 39.53125 22.871094 C 42.414062 24.96875 57.074219 21.597656 58.175781 24.992188 C 59.277344 28.382812 45.4375 34.273438 44.335938 37.664062 C 43.234375 41.054688 50.96875 53.957031 48.085938 56.054688 C 45.199219 58.148438 35.320312 46.804688 31.753906 46.804688 C 28.1875 46.804688 18.308594 58.148438 15.421875 56.054688 C 12.539062 53.957031 20.273438 41.054688 19.171875 37.664062 C 18.066406 34.273438 4.226562 28.382812 5.328125 24.992188 C 6.429688 21.597656 21.089844 24.96875 23.976562 22.871094 C 26.859375 20.777344 28.1875 5.792969 31.753906 5.792969 Z M 31.753906 5.792969 "/>
<path style=" stroke:none;fill-rule:nonzero;fill:rgb(100%,100%,100%);fill-opacity:0.392157;" d="M 31.753906 5.625 C 28.1875 5.625 26.859375 20.609375 23.976562 22.707031 C 21.089844 24.804688 6.429688 21.433594 5.328125 24.824219 C 5.253906 25.058594 5.25 25.308594 5.304688 25.566406 C 5.3125 25.539062 5.320312 25.511719 5.328125 25.488281 C 6.429688 22.09375 21.089844 25.464844 23.976562 23.367188 C 26.859375 21.273438 28.1875 6.289062 31.753906 6.289062 C 35.320312 6.289062 36.644531 21.273438 39.53125 23.367188 C 42.414062 25.464844 57.074219 22.09375 58.175781 25.488281 C 58.183594 25.511719 58.191406 25.539062 58.199219 25.566406 C 58.257812 25.308594 58.253906 25.058594 58.175781 24.824219 C 57.074219 21.433594 42.414062 24.804688 39.53125 22.707031 C 36.644531 20.609375 35.320312 5.625 31.753906 5.625 Z M 19.265625 38.65625 C 18.992188 42.484375 14.527344 50.859375 14.785156 54.464844 C 15.035156 50.324219 19.550781 41.898438 19.265625 38.65625 Z M 44.242188 38.65625 C 43.953125 41.898438 48.46875 50.324219 48.722656 54.464844 C 48.980469 50.859375 44.515625 42.484375 44.242188 38.65625 Z M 44.242188 38.65625 "/>
<path style=" stroke:none;fill-rule:nonzero;fill:rgb(0%,0%,0%);fill-opacity:0.235294;" d="M 5.277344 25.226562 C 4.855469 28.652344 18.09375 34.351562 19.171875 37.664062 C 19.230469 37.851562 19.265625 38.070312 19.273438 38.3125 C 19.289062 37.933594 19.257812 37.605469 19.171875 37.339844 C 18.128906 34.128906 5.671875 28.679688 5.277344 25.226562 Z M 58.230469 25.226562 C 57.835938 28.679688 45.378906 34.128906 44.335938 37.339844 C 44.25 37.605469 44.21875 37.933594 44.230469 38.3125 C 44.242188 38.070312 44.273438 37.851562 44.335938 37.664062 C 45.414062 34.351562 58.648438 28.652344 58.230469 25.226562 Z M 31.753906 46.480469 C 28.1875 46.480469 18.308594 57.824219 15.421875 55.726562 C 14.996094 55.417969 14.800781 54.871094 14.777344 54.152344 C 14.75 55.03125 14.933594 55.699219 15.421875 56.054688 C 18.308594 58.148438 28.1875 46.804688 31.753906 46.804688 C 35.320312 46.804688 45.199219 58.148438 48.085938 56.054688 C 48.574219 55.699219 48.757812 55.03125 48.730469 54.152344 C 48.707031 54.871094 48.511719 55.417969 48.085938 55.726562 C 45.199219 57.824219 35.320312 46.480469 31.753906 46.480469 Z M 31.753906 46.480469 "/>
<path style=" stroke:none;fill-rule:nonzero;fill:rgb(12.941177%,12.941177%,12.941177%);fill-opacity:1;" d="M 31.753906 5.605469 C 31.242188 5.605469 30.78125 5.875 30.375 6.3125 C 29.972656 6.75 29.609375 7.359375 29.269531 8.085938 C 28.589844 9.542969 28 11.488281 27.429688 13.496094 C 26.859375 15.5 26.3125 17.570312 25.730469 19.257812 C 25.148438 20.949219 24.507812 22.253906 23.867188 22.71875 C 23.226562 23.1875 21.785156 23.390625 19.996094 23.421875 C 18.210938 23.453125 16.074219 23.335938 13.992188 23.257812 C 11.90625 23.179688 9.875 23.140625 8.277344 23.335938 C 7.480469 23.4375 6.789062 23.589844 6.25 23.839844 C 5.710938 24.089844 5.308594 24.445312 5.152344 24.933594 C 4.992188 25.417969 5.109375 25.941406 5.398438 26.460938 C 5.6875 26.980469 6.15625 27.511719 6.742188 28.0625 C 7.921875 29.160156 9.585938 30.320312 11.320312 31.484375 C 13.050781 32.644531 14.847656 33.804688 16.273438 34.878906 C 17.703125 35.957031 18.746094 36.96875 18.992188 37.722656 C 19.238281 38.476562 18.988281 39.910156 18.464844 41.617188 C 17.941406 43.328125 17.171875 45.324219 16.453125 47.28125 C 15.734375 49.238281 15.066406 51.15625 14.761719 52.738281 C 14.609375 53.527344 14.542969 54.230469 14.613281 54.824219 C 14.683594 55.414062 14.898438 55.90625 15.3125 56.207031 C 15.726562 56.507812 16.257812 56.558594 16.84375 56.441406 C 17.425781 56.328125 18.078125 56.046875 18.78125 55.65625 C 20.1875 54.878906 21.808594 53.652344 23.449219 52.363281 C 25.089844 51.074219 26.746094 49.722656 28.210938 48.699219 C 29.675781 47.675781 30.960938 46.992188 31.753906 46.992188 C 32.546875 46.992188 33.832031 47.675781 35.296875 48.699219 C 36.757812 49.722656 38.417969 51.074219 40.058594 52.363281 C 41.699219 53.652344 43.320312 54.878906 44.726562 55.65625 C 45.429688 56.046875 46.078125 56.328125 46.664062 56.441406 C 47.246094 56.558594 47.78125 56.507812 48.195312 56.207031 C 48.609375 55.90625 48.820312 55.414062 48.890625 54.824219 C 48.960938 54.230469 48.898438 53.527344 48.746094 52.738281 C 48.4375 51.15625 47.773438 49.238281 47.054688 47.28125 C 46.335938 45.324219 45.5625 43.328125 45.042969 41.617188 C 44.519531 39.910156 44.269531 38.476562 44.515625 37.722656 C 44.757812 36.96875 45.804688 35.957031 47.230469 34.878906 C 48.65625 33.804688 50.457031 32.644531 52.1875 31.484375 C 53.917969 30.320312 55.585938 29.160156 56.761719 28.0625 C 57.351562 27.511719 57.816406 26.980469 58.109375 26.460938 C 58.398438 25.941406 58.511719 25.417969 58.355469 24.933594 C 58.199219 24.445312 57.796875 24.089844 57.257812 23.839844 C 56.714844 23.589844 56.027344 23.4375 55.226562 23.335938 C 53.628906 23.140625 51.597656 23.179688 49.515625 23.257812 C 47.429688 23.335938 45.296875 23.453125 43.507812 23.421875 C 41.722656 23.390625 40.28125 23.1875 39.640625 22.71875 C 39 22.253906 38.359375 20.949219 37.777344 19.257812 C 37.195312 17.570312 36.648438 15.5 36.078125 13.496094 C 35.507812 11.488281 34.917969 9.542969 34.238281 8.085938 C 33.898438 7.359375 33.535156 6.75 33.128906 6.3125 C 32.726562 5.875 32.265625 5.605469 31.753906 5.605469 Z M 31.753906 5.980469 C 32.132812 5.980469 32.492188 6.175781 32.855469 6.566406 C 33.214844 6.957031 33.566406 7.535156 33.898438 8.246094 C 34.558594 9.664062 35.148438 11.59375 35.714844 13.597656 C 36.285156 15.597656 36.832031 17.671875 37.421875 19.378906 C 38.011719 21.089844 38.617188 22.441406 39.417969 23.023438 C 40.222656 23.605469 41.695312 23.765625 43.503906 23.796875 C 45.308594 23.832031 47.449219 23.710938 49.527344 23.632812 C 51.609375 23.554688 53.628906 23.519531 55.179688 23.710938 C 55.957031 23.804688 56.617188 23.957031 57.097656 24.183594 C 57.582031 24.40625 57.882812 24.6875 58 25.046875 C 58.117188 25.410156 58.039062 25.8125 57.78125 26.277344 C 57.519531 26.742188 57.078125 27.253906 56.507812 27.789062 C 55.363281 28.855469 53.707031 30.011719 51.980469 31.171875 C 50.25 32.332031 48.449219 33.492188 47.003906 34.582031 C 45.5625 35.667969 44.464844 36.664062 44.15625 37.605469 C 43.851562 38.550781 44.15625 40 44.683594 41.730469 C 45.210938 43.457031 45.984375 45.457031 46.703125 47.410156 C 47.417969 49.363281 48.078125 51.273438 48.375 52.808594 C 48.527344 53.578125 48.582031 54.25 48.519531 54.777344 C 48.457031 55.308594 48.28125 55.679688 47.972656 55.902344 C 47.667969 56.125 47.257812 56.175781 46.738281 56.074219 C 46.214844 55.972656 45.589844 55.707031 44.90625 55.328125 C 43.539062 54.570312 41.925781 53.355469 40.289062 52.070312 C 38.652344 50.785156 36.992188 49.429688 35.511719 48.390625 C 34.027344 47.355469 32.742188 46.617188 31.753906 46.617188 C 30.761719 46.617188 29.476562 47.355469 27.996094 48.390625 C 26.511719 49.429688 24.851562 50.785156 23.214844 52.070312 C 21.578125 53.355469 19.964844 54.570312 18.597656 55.328125 C 17.914062 55.707031 17.292969 55.972656 16.769531 56.074219 C 16.246094 56.175781 15.839844 56.125 15.53125 55.902344 C 15.226562 55.679688 15.050781 55.308594 14.984375 54.777344 C 14.921875 54.25 14.980469 53.578125 15.128906 52.808594 C 15.425781 51.273438 16.085938 49.363281 16.804688 47.410156 C 17.519531 45.457031 18.292969 43.457031 18.824219 41.730469 C 19.351562 40 19.65625 38.550781 19.347656 37.605469 C 19.042969 36.664062 17.945312 35.667969 16.5 34.582031 C 15.054688 33.492188 13.253906 32.332031 11.527344 31.171875 C 9.800781 30.011719 8.144531 28.855469 7 27.789062 C 6.429688 27.253906 5.984375 26.742188 5.726562 26.277344 C 5.464844 25.8125 5.390625 25.410156 5.507812 25.046875 C 5.625 24.6875 5.921875 24.40625 6.40625 24.183594 C 6.890625 23.957031 7.546875 23.804688 8.324219 23.710938 C 9.878906 23.519531 11.898438 23.554688 13.976562 23.632812 C 16.054688 23.710938 18.195312 23.832031 20.003906 23.796875 C 21.8125 23.765625 23.285156 23.605469 24.085938 23.023438 C 24.886719 22.441406 25.496094 21.089844 26.085938 19.378906 C 26.671875 17.671875 27.222656 15.597656 27.789062 13.597656 C 28.359375 11.59375 28.949219 9.664062 29.609375 8.246094 C 29.941406 7.535156 30.289062 6.957031 30.652344 6.566406 C 31.011719 6.175781 31.371094 5.980469 31.753906 5.980469 Z M 31.753906 5.980469 "/>
</g>
</svg>

<svg xmlns="http://www.w3.org/2000/svg" width="64pt" height="64pt" viewBox="0 0 64 64"><defs><radialGradient id="a" gradientUnits="userSpaceOnUse" cx="450.909" cy="189.579" fx="450.909" fy="189.579" r="21.167" gradientTransform="matrix(0 -.15626 -.28128 0 69.862 127.19)"><stop offset="0" stop-opacity=".314"/><stop offset=".222" stop-opacity=".275"/><stop offset="1" stop-opacity="0"/></radialGradient><radialGradient id="b" gradientUnits="userSpaceOnUse" cx="450.909" cy="189.579" fx="450.909" fy="189.579" r="21.167" gradientTransform="matrix(0 .15626 .28128 0 -36.125 -15.055)"><stop offset="0" stop-opacity=".314"/><stop offset=".222" stop-opacity=".275"/><stop offset="1" stop-opacity="0"/></radialGradient><radialGradient id="c" gradientUnits="userSpaceOnUse" cx="450.909" cy="189.579" fx="450.909" fy="189.579" r="21.167" gradientTransform="matrix(0 -.15626 .28128 0 -36.125 127.19)"><stop offset="0" stop-opacity=".314"/><stop offset=".222" stop-opacity=".275"/><stop offset="1" stop-opacity="0"/></radialGradient><radialGradient id="d" gradientUnits="userSpaceOnUse" cx="450.909" cy="189.579" fx="450.909" fy="189.579" r="21.167" gradientTransform="matrix(0 .15626 -.28128 0 69.862 -15.055)"><stop offset="0" stop-opacity=".314"/><stop offset=".222" stop-opacity=".275"/><stop offset="1" stop-opacity="0"/></radialGradient><linearGradient id="e" gradientUnits="userSpaceOnUse" x1="255.323" y1="233.5" x2="255.323" y2="254.667" gradientTransform="matrix(.02672 0 0 .12501 14.346 26.878)"><stop offset="0" stop-opacity=".275"/><stop offset="1" stop-opacity="0"/></linearGradient><radialGradient id="f" gradientUnits="userSpaceOnUse" cx="450.909" cy="189.579" fx="450.909" fy="189.579" r="21.167" gradientTransform="matrix(0 -.15626 -.28128 0 100.292 127.19)"><stop offset="0" stop-opacity=".314"/><stop offset=".222" stop-opacity=".275"/><stop offset="1" stop-opacity="0"/></radialGradient><radialGradient id="g" gradientUnits="userSpaceOnUse" cx="450.909" cy="189.579" fx="450.909" fy="189.579" r="21.167" gradientTransform="matrix(0 .15626 .28128 0 -5.695 -15.055)"><stop offset="0" stop-opacity=".314"/><stop offset=".222" stop-opacity=".275"/><stop offset="1" stop-opacity="0"/></radialGradient><radialGradient id="h" gradientUnits="userSpaceOnUse" cx="450.909" cy="189.579" fx="450.909" fy="189.579" r="21.167" gradientTransform="matrix(0 -.15626 .28128 0 -5.695 127.19)"><stop offset="0" stop-opacity=".314"/><stop offset=".222" stop-opacity=".275"/><stop offset="1" stop-opacity="0"/></radialGradient><radialGradient id="i" gradientUnits="userSpaceOnUse" cx="450.909" cy="189.579" fx="450.909" fy="189.579" r="21.167" gradientTransform="matrix(0 .15626 -.28128 0 100.292 -15.055)"><stop offset="0" stop-opacity=".314"/><stop offset=".222" stop-opacity=".275"/><stop offset="1" stop-opacity="0"/></radialGradient><linearGradient id="j" gradientUnits="userSpaceOnUse" x1="255.323" y1="233.5" x2="255.323" y2="254.667" gradientTransform="matrix(.02672 0 0 .12501 44.776 26.878)"><stop offset="0" stop-opacity=".275"/><stop offset="1" stop-opacity="0"/></linearGradient><linearGradient id="k" gradientUnits="userSpaceOnUse" x1="254" y1="233.5" x2="254" y2="-168.667" gradientTransform="translate(0 26.878) scale(.12501)"><stop offset="0" stop-color="#ffca28"/><stop offset="1" stop-color="#ffd54f"/></linearGradient></defs><path d="M17.2 56.066h5.292v-2.644H17.2zm0 0" fill="url(#a)"/><path d="M16.54 56.066h-5.294v2.649h5.293zm0 0" fill="url(#b)"/><path d="M16.54 56.066h-5.294v-2.644h5.293zm0 0" fill="url(#c)"/><path d="M17.2 56.066h5.292v2.649H17.2zm0 0" fill="url(#d)"/><path d="M16.54 55.406h.66v3.309h-.66zm0 0" fill="url(#e)"/><path d="M47.629 56.066h5.293v-2.644h-5.293zm0 0" fill="url(#f)"/><path d="M46.969 56.066h-5.293v2.649h5.293zm0 0" fill="url(#g)"/><path d="M46.969 56.066h-5.293v-2.644h5.293zm0 0" fill="url(#h)"/><path d="M47.629 56.066h5.293v2.649h-5.293zm0 0" fill="url(#i)"/><path d="M46.969 55.406h.66v3.309h-.66zm0 0" fill="url(#j)"/><path d="M31.754 5.793c3.566 0 4.89 14.984 7.777 17.078 2.883 2.098 17.543-1.273 18.645 2.121 1.101 3.39-12.739 9.281-13.84 12.672-1.102 3.39 6.633 16.293 3.75 18.39-2.887 2.094-12.766-9.25-16.332-9.25-3.567 0-13.445 11.344-16.332 9.25-2.883-2.097 4.851-15 3.75-18.39-1.106-3.39-14.945-9.281-13.844-12.672 1.102-3.394 15.762-.023 18.649-2.12 2.882-2.095 4.21-17.079 7.777-17.079zm0 0" fill="url(#k)"/><path d="M31.754 5.625c-3.567 0-4.895 14.984-7.777 17.082-2.887 2.098-17.547-1.273-18.649 2.117a1.442 1.442 0 0 0-.023.742l.023-.078c1.102-3.394 15.762-.023 18.649-2.12 2.882-2.095 4.21-17.079 7.777-17.079 3.566 0 4.89 14.984 7.777 17.078 2.883 2.098 17.543-1.273 18.645 2.121l.023.078a1.363 1.363 0 0 0-.023-.742c-1.102-3.39-15.762-.02-18.645-2.117-2.886-2.098-4.21-17.082-7.777-17.082zM19.266 38.656c-.274 3.828-4.739 12.203-4.48 15.809.25-4.14 4.765-12.567 4.48-15.809zm24.976 0c-.289 3.242 4.227 11.668 4.48 15.809.258-3.606-4.206-11.98-4.48-15.809zm0 0" fill="#fff" fill-opacity=".392"/><path d="M5.277 25.227c-.422 3.425 12.817 9.125 13.895 12.437.058.188.094.406.101.648.016-.378-.015-.707-.101-.972-1.043-3.211-13.5-8.66-13.895-12.113zm52.953 0c-.394 3.453-12.851 8.902-13.894 12.113-.086.265-.117.594-.106.972.012-.242.043-.46.106-.648 1.078-3.312 14.312-9.012 13.894-12.437zM31.754 46.48c-3.567 0-13.445 11.344-16.332 9.247-.426-.309-.621-.856-.645-1.575-.027.88.157 1.547.645 1.903 2.887 2.093 12.765-9.25 16.332-9.25 3.566 0 13.445 11.343 16.332 9.25.488-.356.672-1.024.644-1.903-.023.72-.218 1.266-.644 1.575-2.887 2.097-12.766-9.247-16.332-9.247zm0 0" fill-opacity=".235"/><path d="M31.754 5.605c-.512 0-.973.27-1.379.707-.402.438-.766 1.047-1.105 1.774-.68 1.457-1.27 3.402-1.84 5.41-.57 2.004-1.117 4.074-1.7 5.762-.582 1.691-1.222 2.996-1.863 3.46-.64.47-2.082.673-3.87.704-1.786.031-3.923-.086-6.005-.164-2.086-.078-4.117-.117-5.715.078-.797.102-1.488.254-2.027.504-.54.25-.941.605-1.098 1.094-.16.484-.043 1.007.246 1.527.29.52.758 1.05 1.344 1.602 1.18 1.097 2.844 2.257 4.578 3.421 1.73 1.16 3.528 2.32 4.953 3.395 1.43 1.078 2.473 2.09 2.72 2.844.245.754-.005 2.187-.528 3.894-.524 1.711-1.293 3.707-2.012 5.664-.719 1.957-1.387 3.875-1.691 5.457-.153.79-.219 1.492-.149 2.086.07.59.285 1.082.7 1.383.414.3.945.352 1.53.234.583-.113 1.235-.394 1.938-.785 1.407-.777 3.028-2.004 4.668-3.293 1.64-1.289 3.297-2.64 4.762-3.664 1.465-1.023 2.75-1.707 3.543-1.707.793 0 2.078.684 3.543 1.707 1.46 1.024 3.121 2.375 4.762 3.664 1.64 1.29 3.261 2.516 4.668 3.293.703.39 1.351.672 1.937.785.582.118 1.117.067 1.531-.234.414-.3.625-.793.696-1.383.07-.594.007-1.297-.145-2.086-.309-1.582-.973-3.5-1.691-5.457-.72-1.957-1.492-3.953-2.012-5.664-.523-1.707-.773-3.14-.527-3.894.242-.754 1.289-1.766 2.714-2.844 1.426-1.074 3.227-2.234 4.958-3.395 1.73-1.164 3.398-2.324 4.574-3.422.59-.55 1.054-1.082 1.347-1.601.29-.52.403-1.043.246-1.527-.156-.489-.558-.844-1.097-1.094-.543-.25-1.23-.402-2.031-.504-1.598-.195-3.63-.156-5.711-.078-2.086.078-4.22.195-6.008.164-1.785-.031-3.227-.235-3.867-.703-.641-.465-1.282-1.77-1.864-3.461-.582-1.688-1.129-3.758-1.699-5.762-.57-2.008-1.16-3.953-1.84-5.41-.34-.727-.703-1.336-1.11-1.774-.401-.437-.862-.707-1.374-.707zm0 .375c.379 0 .738.196 1.101.586.36.391.711.97 1.043 1.68.66 1.418 1.25 3.348 1.817 5.352.57 2 1.117 4.074 1.707 5.78.59 1.712 1.195 3.063 1.996 3.645.805.582 2.277.743 4.086.774 1.805.035 3.945-.086 6.023-.164 2.082-.078 4.102-.113 5.653.078.777.094 1.437.246 1.918.473.484.222.785.503.902.863.117.363.04.765-.219 1.23-.261.465-.703.977-1.273 1.512-1.145 1.066-2.801 2.223-4.528 3.383-1.73 1.16-3.53 2.32-4.976 3.41-1.441 1.086-2.54 2.082-2.848 3.023-.304.946 0 2.395.528 4.125.527 1.727 1.3 3.727 2.02 5.68.714 1.953 1.374 3.863 1.671 5.399.152.77.207 1.441.145 1.968-.063.532-.239.903-.547 1.125-.305.223-.715.274-1.235.172-.523-.101-1.148-.367-1.832-.746-1.367-.758-2.98-1.973-4.617-3.258s-3.297-2.64-4.777-3.68c-1.485-1.035-2.77-1.773-3.758-1.773-.992 0-2.277.738-3.758 1.774-1.484 1.039-3.144 2.394-4.781 3.68-1.637 1.284-3.25 2.5-4.617 3.257-.684.379-1.305.645-1.828.746-.524.102-.93.051-1.239-.172-.304-.222-.48-.593-.547-1.125-.062-.527-.004-1.199.145-1.968.297-1.536.957-3.446 1.676-5.399.715-1.953 1.488-3.953 2.02-5.68.527-1.73.831-3.18.523-4.125-.305-.94-1.403-1.937-2.848-3.023-1.445-1.09-3.246-2.25-4.973-3.41-1.726-1.16-3.382-2.317-4.527-3.383-.57-.535-1.016-1.047-1.273-1.512-.262-.465-.336-.867-.22-1.23.118-.36.415-.64.9-.863.484-.227 1.14-.38 1.917-.473 1.555-.191 3.574-.156 5.653-.078 2.078.078 4.218.199 6.027.164 1.808-.031 3.281-.192 4.082-.774.8-.582 1.41-1.933 2-3.644.586-1.707 1.137-3.781 1.703-5.781.57-2.004 1.16-3.934 1.82-5.352.332-.71.68-1.289 1.043-1.68.36-.39.72-.586 1.102-.586zm0 0" fill="#212121"/></svg>
